!!!COM: Mozart
!!!OTL: 12 Variations on "Ah Vous dirais-je, Maman" for the Piano,
!!!Variation: 10 b
**kern	**kern
*M2/4	*M2/4
=-	=-
*	*
*	*^
*	*	*
4GGG 4GG	4r	16r
.	.	(16eLL
.	.	16cc
.	.	16eJJ)
4r	4gg	16r
.	.	(16eLL
.	.	16cc
.	.	16eJJ)
=	=	=
2r	4ff#	16r
.	.	(16dLL
.	.	16cc
.	.	16dJJ)
.	4ff	16r
.	.	(16dLL
.	.	16b
.	.	16dJJ)
*	*	*
*	*v	*v
*	*
=	=
*	*
*	*^
*	*	*
4r	4ee	16r
.	.	(16cLL
.	.	16cc
.	.	16cJJ)
4GG 4G	16r	16r
*	*	*
*	*v	*v
.	(16gLL
.	16cc 16ee-
.	16gJJ)
*	*
*	*
=	=
4FF# 4F#	16r
.	(16aLL
.	16cc 16dd
.	16aJJ)
4FF 4F	16r
.	(16a-LL
.	16b 16dd
.	16a-JJ)
=	=
4EE 4E	16r
.	(16gLL
.	16cc 16ee
.	16gJJ)
4EE- 4E-	16r
.	(16gLL
.	16cc# 16gg
.	16gJJ)
=	=
4DD 4D	16r
.	(16aLL
.	16dd 16ff#
.	16aJJ)
4BBB 4BB	16r
.	(16a-LL
.	16dd 16ff
.	16a-JJ)
=	=
4CC 4C	16r
.	(16gLL
.	16cc 16ee
.	16gJJ)
4FFF# 4FF#	16r
.	(16aLL
.	16cc 16ee-
.	16aJJ)
=	=
4GGG 4GG	(16bLL 16dd
.	16cc
.	16b
.	16aJJ
4r	16gLL
.	16f
.	16e
.	16dJJ)
=	=
*-	*-
